X:1017
M:C
L:1/8
Q:1/4=128
K:E Minor
d|E/E/E B>E d>EB<e|d>BA>F D>EF<A  |E/E/E B>E d>EB<e|d>BAF  {FA}B2E:|
  E<ee<f    g>efd |B>dA>F D>EFD   |g>ef>d    B<de>f|d>BFA  {FA}B2D|]

